!!!!SEGMENT: pl-kk--kk-i-329--009_costanzi-giovanni-battista--confitebor-intellectus-bonus.krn
!!!cenid: 17xx:1928
!!!COM: Costanzi, Giovanni Battista
!!!COM-rismID: pe20000434
!!!CDT: 1704-1778
!!!CNT: Italian
!!!OPR: Confitebor
!!!OTL: Intellectus bonus
!!!OMV: 009
!!!PDT:
!!!AGN: Sacred
!!!SMS-siglum: PL-Kk
!!!SMS-shelfmark: Kk.I.329
!!!SMS-shelfwork: 001-009 M
!!!SMS-variant:
!!!SMS-altvar:
!!!NIFC-rismSourceID: 1001143621
!!!NIFC-islandoraID: pl-kk:5543
!!!URL-pdf-islandora: https://repozytorium.nifc.pl/islandora/object/pl-kk%3A5543/datastream/PDF/view
!!!URL-scan: https://polish.musicsources.pl/pl/lokalizacje/galeria/rekopisy/5948 @EN{Scan on Polish Music Herritage in Open Access Website} @PL{Skany w portalu Dziedzictwo Muzyki Polskiej w otwartym dostępie}
!!!ONB-nifc: UWAGA: części Confitebor: 1. Confitebor, 2. Magna opera, 3. Confessio, 4. Memoriam fecit, 5. Memor erit, 6. Fidelia omnia, 7. Redemptionem, 8. Sanctum, 9. Intellectus bonus, 10. Gloria Patri, 11. Sicut erat, 12. Amen
!!!AIN: 2 alto 2 empty 1 organ 1 tenor 2 vox
!!!key:
**kern	**fba	**kern	**kern	**kern	**kern	**kern	**text	**kern	**text	**kern	**text
*part8	*	*part7	*part6	*part5	*part4	*part3	*part3	*part2	*part2	*part1	*part1
*	*	*group2	*group2	*group2	*group2	*group1	*	*group1	*	*group1	*
*staff8	*	*staff7	*staff6	*staff5	*staff4	*staff3	*staff3	*staff2	*staff2	*staff1	*staff1
*Iorgan	*	*Iempty	*Itenor	*Ialto	*Ivox	*Iempty	*	*Ialto	*	*Ivox	*
*I"Organo.	*	*I"Baſso di Ripieno	*I"Tenore di Ripieno	*I"Alto di Ripieno	*I"Canto di Ripieno	*I"Baſso di Concerto	*	*I"Alto di Concerto	*	*I"Canto di Concerto	*
*I'org	*	*I'B rip	*I'T rip	*I'A rip	*I'S rip	*I'B conc	*	*I'A conc	*	*I'S conc	*
*clefF4	*	*clefF4	*clefC4	*clefC3	*clefC1	*clefF4	*	*clefC3	*	*clefC1	*
*k[f#c#]	*	*k[f#c#]	*k[f#c#]	*k[f#c#]	*k[f#c#]	*k[f#c#]	*	*k[f#c#]	*	*k[f#c#]	*
*A:	*	*A:	*A:	*A:	*A:	*A:	*	*A:	*	*A:	*
*M3/8	*	*M3/8	*M3/8	*M3/8	*M3/8	*M3/8	*	*M3/8	*	*M3/8	*
=1	=1	=1	=1	=1	=1	=1	=1	=1	=1	=1	=1
!LO:TX:a:t=All.o	!	!LO:TX:a:t=Intellectus Tacet	!LO:TX:a:t=Intellectus Tacet	!LO:TX:a:t=Intellectus bonus Tacet	!LO:TX:a:t=Intellectus bonus Tacet	!LO:TX:a:t=All.o	!	!LO:TX:a:t=Alle.	!	!LO:TX:a:t=a 3.e\nAll.o	!
!LO:TX:b:t=intellectuſ	!	!	!	!	!	!	!	!	!	!LO:TX:a:t=P:problem=znaki f# cc#	!
8AA/L	.	4.ryy	4.ryy	4.ryy	4.ryy	8A\L	In-	4a\	In-	4ee\	In-
8C#/	.	.	.	.	.	8c#\J	.	.	.	.	.
8AA/J	.	.	.	.	.	8A\	-tel-	8r	.	8r	.
=2	=2	=2	=2	=2	=2	=2	=2	=2	=2	=2	=2
8E\L	.	4.ryy	4.ryy	4.ryy	4.ryy	8E\L	-lec-	4b\	-tel-	4dd\	-tel-
8G#X\	.	.	.	.	.	8G#X\J	.	.	.	.	.
8E\J	.	.	.	.	.	8E\	-tus	8r	.	8r	.
=3	=3	=3	=3	=3	=3	=3	=3	=3	=3	=3	=3
!LO:TX:t=P:problem=mixed beam	!	!	!	!	!	!	!	!	!	!	!
8A\L	.	4.ryy	4.ryy	4.ryy	4.ryy	4A\	in-	8a\L	-Lec-	8cc#\L	-Le-
8AA/	.	.	.	.	.	.	.	8b\J	.	8dd\J	.
8A\J	.	.	.	.	.	8A\	-tel-	8cc#\	-tus	8ee\	-ctus
=4	=4	=4	=4	=4	=4	=4	=4	=4	=4	=4	=4
4D\	.	4.ryy	4.ryy	4.ryy	4.ryy	4D\	-lec-	8b\L	bo-	8dd\L	bo-
.	.	.	.	.	.	.	.	8a\J	.	8cc#\J	.
8E\	#	.	.	.	.	8E\	-tus	8g#X\	-nus	8b\	-nuſ
=5	=5	=5	=5	=5	=5	=5	=5	=5	=5	=5	=5
8AA/L	.	4.ryy	4.ryy	4.ryy	4.ryy	8A\L	bo-	4a\	om-	4a\	om-
8C#/	.	.	.	.	.	8c#\J	.	.	.	.	.
8AA/J	.	.	.	.	.	8A\	-nus	8r	.	8r	.
!	!	!	!	!	!	!LO:LB:g=original	!	!	!	!LO:LB:g=original	!
=6	=6	=6	=6	=6	=6	=6	=6	=6	=6	=6	=6
8E\L	.	4.ryy	4.ryy	4.ryy	4.ryy	8E\L	om-	4g#X\	-ni-	4b\	-ni-
8G#X\	.	.	.	.	.	8G#X\J	.	.	.	.	.
8E\J	.	.	.	.	.	8E\	-ni-	8r	.	8r	.
!	!	!	!	!	!	!	!	!LO:PB:g=original	!	!	!
=7	=7	=7	=7	=7	=7	=7	=7	=7	=7	=7	=7
8A\L	.	4.ryy	4.ryy	4.ryy	4.ryy	4A\	-bus	4a\	-bus	4cc#\	-bus
8c#\	.	.	.	.	.	.	.	.	.	.	.
8A\J	.	.	.	.	.	8r	.	8r	.	8r	.
!LO:LB:g=original	!	!	!	!	!	!	!	!	!	!	!
=8	=8	=8	=8	=8	=8	=8	=8	=8	=8	=8	=8
4D\	.	4.ryy	4.ryy	4.ryy	4.ryy	4D\	fa-	4a\	fa-	4ff#\	fa-
8d\	.	.	.	.	.	8d\	-ci-	8dd\	-ci-	8ff#\	-ci-
=9	=9	=9	=9	=9	=9	=9	=9	=9	=9	=9	=9
8A\L	.	4.ryy	4.ryy	4.ryy	4.ryy	8A\	-en-	8cc#\	-en-	8ee\	-en-
8B\	.	.	.	.	.	8B\	-ti-	8b\	-ti-	8dd\	-ti-
8c#\J	.	.	.	.	.	8c#\	-bus	8a\	-bus	8cc#\	-bus
=10	=10	=10	=10	=10	=10	=10	=10	=10	=10	=10	=10
4d\	.	4.ryy	4.ryy	4.ryy	4.ryy	4d\	fa-	4a\	fa-	4ff#\	fa-
8d\	.	.	.	.	.	8d\	-ci-	8dd\	-ci-	8ff#\	-ci[[en]]-
=11	=11	=11	=11	=11	=11	=11	=11	=11	=11	=11	=11
8A\L	.	4.ryy	4.ryy	4.ryy	4.ryy	8A\	-en-	8cc#\	-en-	8ee\	-en-
8B\	.	.	.	.	.	8B\	-ti-	8b\	-ti-	8dd\	-ti-
8c#\J	.	.	.	.	.	8c#\	-bus	8a\	-bus	8cc#\	-bus
!	!	!	!	!	!	!LO:LB:g=original	!	!LO:LB:g=original	!	!LO:LB:g=original	!
=12	=12	=12	=12	=12	=12	=12	=12	=12	=12	=12	=12
4B\	.	4.ryy	4.ryy	4.ryy	4.ryy	4B\	e-	4a\	e-	4.dd\	e-
*	*below	*	*	*	*	*	*	*	*	*	*
.	7	.	.	.	.	.	.	.	.	.	.
*	*above	*	*	*	*	*	*	*	*	*	*
8E\	#	.	.	.	.	8E\	.	8g#X\	.	.	.
=13	=13	=13	=13	=13	=13	=13	=13	=13	=13	=13	=13
4A\	.	4.ryy	4.ryy	4.ryy	4.ryy	8A\	-um	8a\	-um	8cc#\	-um
.	.	.	.	.	.	8r	.	8r	.	8r	.
8A\	.	.	.	.	.	8A\	Lau-	8a\	Lau-	8cc#\	Lau-
=14	=14	=14	=14	=14	=14	=14	=14	=14	=14	=14	=14
4E\	6 4	4.ryy	4.ryy	4.ryy	4.ryy	4E\	-da-	8a\L	-da-	8cc#\L	-da-
.	.	.	.	.	.	.	.	8g#X\J	.	8b\J	.
8E\	7 #3	.	.	.	.	8E\	-tio	8b\	-tio	8dd\	-tio
=15	=15	=15	=15	=15	=15	=15	=15	=15	=15	=15	=15
4A\	.	4.ryy	4.ryy	4.ryy	4.ryy	4A\	e-	8b\L	e-	8dd\L	e-
.	.	.	.	.	.	.	.	8a\J	.	8cc#\J	.
8d\	.	.	.	.	.	8d\	-ius	8a\	-ius	8ff#\	-ius
!LO:LB:g=original	!	!	!	!	!	!	!	!	!	!	!
=16	=16	=16	=16	=16	=16	=16	=16	=16	=16	=16	=16
.	.	.	.	.	.	.	.	.	.	8qqee/	.
!LO:TX:t=P:problem=mixed beam	!	!	!	!	!	!	!	!	!	!	!
8B\L	.	4.ryy	4.ryy	4.ryy	4.ryy	4B\	ma-	4a\	ma-	4.dd\	ma-
8BB/	.	.	.	.	.	.	.	.	.	.	.
8E/J	.	.	.	.	.	8E\	.	8g#X\	.	.	.
!	!	!	!	!	!	!	!	!LO:LB:g=original	!	!	!
=17	=17	=17	=17	=17	=17	=17	=17	=17	=17	=17	=17
!	!	!	!	!	!	!LO:TX:t=P:problem=takty 17-20 zapisane repetycją	!	!	!	!	!
8A\L	.	4.ryy	4.ryy	4.ryy	4.ryy	8A\yy	-net	8a\	-net	8cc#\	-net
8c#\	.	.	.	.	.	8ryy	.	8r	.	8r	.
8A\J	.	.	.	.	.	8A\yy	Lau-	8a\	Lau-	8cc#\	Lau-
!	!	!	!	!	!	!	!	!	!	!LO:LB:g=original	!
=18	=18	=18	=18	=18	=18	=18	=18	=18	=18	=18	=18
4E\	.	4.ryy	4.ryy	4.ryy	4.ryy	4E\yy	-da-	8a\L	-da-	8cc#\L	-da-
.	.	.	.	.	.	.	.	8g#X\J	.	8b\J	.
8E\	.	.	.	.	.	8E\yy	-tio	8b\	-tio	8dd\	-tio
=19	=19	=19	=19	=19	=19	=19	=19	=19	=19	=19	=19
4A\	.	4.ryy	4.ryy	4.ryy	4.ryy	4A\yy	e-	8b\L	e-	(8dd\L	e-
.	.	.	.	.	.	.	.	8a\J	.	8cc#\J)	.
8d\	.	.	.	.	.	8d\yy	-ius	8a\	-iuſ	8ff#\	-ius
=20	=20	=20	=20	=20	=20	=20	=20	=20	=20	=20	=20
.	.	.	.	.	.	.	.	.	.	8qqee/	.
!LO:TX:t=P:problem=mixed beam	!	!	!	!	!	!	!	!	!	!	!
8B\L	7	4.ryy	4.ryy	4.ryy	4.ryy	4B\yy	ma	4a\	ma-	4.dd\	ma-
8BB/	.	.	.	.	.	.	.	.	.	.	.
8E/J	#3	.	.	.	.	8E\yy	.	8g#X\	.	.	.
=21	=21	=21	=21	=21	=21	=21	=21	=21	=21	=21	=21
8A\L	.	4.ryy	4.ryy	4.ryy	4.ryy	8A\Lyy	ma-	4a\	-net	4cc#\	-net
8c#\	.	.	.	.	.	8c#\Jyy	.	.	.	.	.
8A\J	.	.	.	.	.	8A\yy	-net	8r	.	8r	.
!	!	!	!	!	!	!LO:LB:g=original	!	!LO:LB:g=original	!	!	!
=22	=22	=22	=22	=22	=22	=22	=22	=22	=22	=22	=22
4.D\	.	4.ryy	4.ryy	4.ryy	4.ryy	4.D\	ma-	8f#\L	ma-	8a\L	ma-
.	.	.	.	.	.	.	.	8g#X\	.	8b\	.
.	.	.	.	.	.	.	.	8a\J	.	8cc#\J	.
=23	=23	=23	=23	=23	=23	=23	=23	=23	=23	=23	=23
8BB/L	.	4.ryy	4.ryy	4.ryy	4.ryy	8BB/L	.	4.b\	.	16dd\LL	.
.	.	.	.	.	.	.	.	.	.	16cc#\JJ	.
8C#/	.	.	.	.	.	8C#/	.	.	.	8dd\	.
8D/J	.	.	.	.	.	8D/J	.	.	.	8r	.
!LO:LB:g=original	!	!	!	!	!	!	!	!	!	!LO:LB:g=original	!
=24	=24	=24	=24	=24	=24	=24	=24	=24	=24	=24	=24
4E\	.	4.ryy	4.ryy	4.ryy	4.ryy	4E\	.	8g#X\L	.	8b\L	.
.	.	.	.	.	.	.	.	8a\	.	8cc#\	.
8r	.	.	.	.	.	8r	.	8b\J	.	8dd\J	.
=25	=25	=25	=25	=25	=25	=25	=25	=25	=25	=25	=25
8C#\L	.	4.ryy	4.ryy	4.ryy	4.ryy	8C#/L	.	4.cc#\	.	4.ee\	.
8D\	.	.	.	.	.	8D/	.	.	.	.	.
8E\J	.	.	.	.	.	8E/J	.	.	.	.	.
=26	=26	=26	=26	=26	=26	=26	=26	=26	=26	=26	=26
4F#\	.	4.ryy	4.ryy	4.ryy	4.ryy	4F#\	.	8a\L	.	8cc#\L	.
.	.	.	.	.	.	.	.	8b\	.	8dd\	.
8r	.	.	.	.	.	8r	.	8cc#\J	.	8ee\J	.
=27	=27	=27	=27	=27	=27	=27	=27	=27	=27	=27	=27
8D\L	.	4.ryy	4.ryy	4.ryy	4.ryy	8D\L	.	4.dd\	.	4.ff#t\	.
8E\	.	.	.	.	.	8E\	.	.	.	.	.
8F#\J	.	.	.	.	.	8F#\J	.	.	.	.	.
=28	=28	=28	=28	=28	=28	=28	=28	=28	=28	=28	=28
8G#X\L	.	4.ryy	4.ryy	4.ryy	4.ryy	8G#X\L	.	8dd\	.	4.eeT\	.
8A\	.	.	.	.	.	8A\	.	4cc#\	.	.	.
8G#\J	.	.	.	.	.	8G#\J	.	.	.	.	.
!	!	!	!	!	!	!	!	!LO:LB:g=original	!	!	!
=29	=29	=29	=29	=29	=29	=29	=29	=29	=29	=29	=29
8F#\L	.	4.ryy	4.ryy	4.ryy	4.ryy	8F#\L	.	8cc#\	.	4.ddT\	.
8G#X\	.	.	.	.	.	8G\	.	4b\	.	.	.
8F#\J	.	.	.	.	.	8F#\J	.	.	.	.	.
!	!	!	!	!	!	!LO:LB:g=original	!	!	!	!LO:LB:g=original	!
=30	=30	=30	=30	=30	=30	=30	=30	=30	=30	=30	=30
8E\L	.	4.ryy	4.ryy	4.ryy	4.ryy	8E\L	.	8b\	.	4.cc#t\	.
8F#\	.	.	.	.	.	8F#\	.	4a\	.	.	.
8E\J	.	.	.	.	.	8E\J	.	.	.	.	.
!LO:LB:g=original	!	!	!	!	!	!	!	!	!	!	!
=31	=31	=31	=31	=31	=31	=31	=31	=31	=31	=31	=31
8D\L	.	4.ryy	4.ryy	4.ryy	4.ryy	8D\L	.	8a\	.	4.bT\	.
8E\	.	.	.	.	.	8E\	.	4g#X\	.	.	.
8D\J	.	.	.	.	.	8D\J	.	.	.	.	.
=32	=32	=32	=32	=32	=32	=32	=32	=32	=32	=32	=32
8C#/L	.	4.ryy	4.ryy	4.ryy	4.ryy	8C#/L	.	8a\L	-net	8cc#\L	.
8BB/	.	.	.	.	.	8BB/J	.	8b\	.	8dd\J	.
8AA/J	.	.	.	.	.	8AA/	-net	8cc#\J	.	8ee\	-net
=33	=33	=33	=33	=33	=33	=33	=33	=33	=33	=33	=33
!	!	!	!	!	!	!LO:TX:b:t=1	!	!	!	!	!
4AA/	.	4.ryy	4.ryy	4.ryy	4.ryy	4.r	.	8a\L	ma-	8cc#\L	ma-
.	.	.	.	.	.	.	.	8cc#\	.	8ee\	.
8r	.	.	.	.	.	.	.	8a\J	.	8cc#\J	.
=34	=34	=34	=34	=34	=34	=34	=34	=34	=34	=34	=34
8E\L	.	4.ryy	4.ryy	4.ryy	4.ryy	8E\L	ma-	4.g#X\	-net	4b\	-net
8G#X\	.	.	.	.	.	8G#X\	.	.	.	.	.
8E\J	.	.	.	.	.	8E\J	.	.	.	8r	.
=35	=35	=35	=35	=35	=35	=35	=35	=35	=35	=35	=35
4.A\	.	4.ryy	4.ryy	4.ryy	4.ryy	4A\	-net	8a\L	ma-	8cc#\L	ma-
.	.	.	.	.	.	.	.	8cc#\	.	8ee\	.
.	.	.	.	.	.	8r	.	8a\J	.	8cc#\J	.
!	!	!	!	!	!	!	!	!LO:LB:g=original	!	!LO:LB:g=original	!
=36	=36	=36	=36	=36	=36	=36	=36	=36	=36	=36	=36
8E\L	.	4.ryy	4.ryy	4.ryy	4.ryy	8E\L	ma-	4.g#X\	-net	4b\	-net
8G#X\	.	.	.	.	.	8G#X\	.	.	.	.	.
8E\J	.	.	.	.	.	8E\J	.	.	.	8r	.
=37	=37	=37	=37	=37	=37	=37	=37	=37	=37	=37	=37
4.AA/	n7	4.ryy	4.ryy	4.ryy	4.ryy	4A\	-net	4.gn\	in	4.cc#\	in
.	.	.	.	.	.	8ryy	.	.	.	.	.
!	!	!	!	!	!	!LO:PB:g=original	!	!	!	!	!
=38	=38	=38	=38	=38	=38	=38	=38	=38	=38	=38	=38
4.D\	.	4.ryy	4.ryy	4.ryy	4.ryy	4.r	.	4.f#\	Sae-	4.dd\	Sae-
!LO:PB:g=original	!	!	!	!	!	!	!	!	!	!	!
=39	=39	=39	=39	=39	=39	=39	=39	=39	=39	=39	=39
4.A\	n7	4.ryy	4.ryy	4.ryy	4.ryy	4.A\	in	4.c#\	.	4.ggn\	.
=40	=40	=40	=40	=40	=40	=40	=40	=40	=40	=40	=40
8D\L	.	4.ryy	4.ryy	4.ryy	4.ryy	8D\	Sae-	8d\	.	8ff#\	.
8E\	#3	.	.	.	.	8E\	-cu-	8g#X\	-cu-	8ee\	-cu-
8F#\J	.	.	.	.	.	8F#\	-lum	8a\	-lum	8dd\	-lum
=41	=41	=41	=41	=41	=41	=41	=41	=41	=41	=41	=41
4E\	.	4.ryy	4.ryy	4.ryy	4.ryy	4E\	Se-	4a\	Sae-	16cc#\LL	Sae-
.	.	.	.	.	.	.	.	.	.	16dd\J	.
.	.	.	.	.	.	.	.	.	.	8cc#\J	.
8EE/	.	.	.	.	.	8E\	-cu-	8g#X\	-cu-	8b\	-cu-
!	!	!	!	!	!	!	!	!	!	!LO:PB:g=original	!
=42	=42	=42	=42	=42	=42	=42	=42	=42	=42	=42	=42
8A\L	.	4.ryy	4.ryy	4.ryy	4.ryy	4AA/	-li	4.a\	-li	4a\	-Li
8c#\	#	.	.	.	.	.	.	.	.	.	.
8e\J	3	.	.	.	.	8r	.	.	.	8r	.
!	!	!	!	!	!	!	!	!LO:LB:g=original	!	!	!
=43	=43	=43	=43	=43	=43	=43	=43	=43	=43	=43	=43
!	!	!	!	!	!	!LO:TX:b:t=1	!	!	!	!	!
4A\	.	4ryy	4ryy	4ryy	4ryy	4.r	.	8a\L	ma-	8cc#\L	ma-
.	.	.	.	.	.	.	.	8cc#\	.	8ee\	.
8r	.	8ryy	8ryy	8ryy	8ryy	.	.	8a\J	.	8cc#\J	.
=44	=44	=44	=44	=44	=44	=44	=44	=44	=44	=44	=44
.	.	.	.	.	.	.	.	.	.	8qqcc#/	.
8E\L	.	4.ryy	4.ryy	4.ryy	4.ryy	8E\L	ma-	4g#X\	-net	4b\	-net
8G#X\	.	.	.	.	.	8G#X\	.	.	.	.	.
8E\J	.	.	.	.	.	8E\J	.	8r	.	8r	.
!	!	!	!	!	!	!LO:LB:g=original	!	!	!	!	!
=45	=45	=45	=45	=45	=45	=45	=45	=45	=45	=45	=45
4A\	.	4.ryy	4.ryy	4.ryy	4.ryy	4A\	-net	8a\L	ma-	8cc#\L	ma-
.	.	.	.	.	.	.	.	8cc#\	.	8ee\	.
8r	.	.	.	.	.	8r	.	8a\J	.	8cc#\J	.
!LO:LB:g=original	!	!	!	!	!	!	!	!	!	!	!
=46	=46	=46	=46	=46	=46	=46	=46	=46	=46	=46	=46
8E\L	.	4.ryy	4.ryy	4.ryy	4.ryy	8E\L	ma-	4.g#X\	-net	4b\	-net
8G#X\	.	.	.	.	.	8G\	.	.	.	.	.
8E\J	.	.	.	.	.	8E\J	.	.	.	8r	.
=47	=47	=47	=47	=47	=47	=47	=47	=47	=47	=47	=47
4.A\	n	4.ryy	4.ryy	4.ryy	4.ryy	4A\	-net	4.gn\	in	4.cc#\	in
.	.	.	.	.	.	8r	.	.	.	.	.
=48	=48	=48	=48	=48	=48	=48	=48	=48	=48	=48	=48
!	!	!	!	!	!	!LO:TX:b:t=1	!	!	!	!	!
4.D\	.	4.ryy	4.ryy	4.ryy	4.ryy	4.r	.	4.f#\	Sae-	4.dd\	S[a]e-
=49	=49	=49	=49	=49	=49	=49	=49	=49	=49	=49	=49
*	*below	*	*	*	*	*	*	*	*	*	*
4.AA/	n7	4.ryy	4.ryy	4.ryy	4.ryy	4.A\	in	4.c#\	.	4.ggn\	.
!	!	!	!	!	!	!	!	!	!	!LO:LB:g=original	!
=50	=50	=50	=50	=50	=50	=50	=50	=50	=50	=50	=50
8D\L	.	4.ryy	4.ryy	4.ryy	4.ryy	8D\	Sae-	8d\	.	8ff#\	.
*	*above	*	*	*	*	*	*	*	*	*	*
8E\	#3	.	.	.	.	8E\	-cu-	8g#X\	-cu-	8ee\	-cu-
8F#\J	.	.	.	.	.	8F#\	-lum	8a\	-lum	8dd\	-lu(m)
!	!	!	!	!	!	!	!	!LO:LB:g=original	!	!	!
=51	=51	=51	=51	=51	=51	=51	=51	=51	=51	=51	=51
!LO:TX:t=P:problem=mixed beam	!	!	!	!	!	!	!	!	!	!	!
8E\L	.	4.ryy	4.ryy	4.ryy	4.ryy	4E\	Sae-	4a\	Sae-	16cc#\LL	Sae-
.	4	.	.	.	.	.	.	.	.	16dd\JJ	.
8EE/	#3	.	.	.	.	.	.	.	.	8cc#\	.
8E\J	.	.	.	.	.	8E\	-cu-	8g#X\	-cu-	8b\	-cu-
=52	=52	=52	=52	=52	=52	=52	=52	=52	=52	=52	=52
!LO:TX:t=P:problem=niezrozumiały napis	!	!	!	!	!	!	!	!	!	!	!
8AA/L	.	4.ryy	4.ryy	4.ryy	4.ryy	4AA/	-li	4a\	-li	4a\	-li
8C#/	.	.	.	.	.	.	.	.	.	.	.
8E/J	.	.	.	.	.	8r	.	8r	.	8r	.
!LO:LB:g=original	!	!	!	!	!	!	!	!	!	!	!
=53	=53	=53	=53	=53	=53	=53	=53	=53	=53	=53	=53
!	!	!	!	!	!	!LO:TX:a:t=P:problem=brak taktów pauzy	!	!LO:TX:b:t=4	!	!LO:TX:b:t=4	!
!	!	!	!	!	!	!	!	!LO:N:vis=00	!	!LO:N:vis=00	!
8D\L	.	4.ryy	4.ryy	4.ryy	4.ryy	4.ryy	.	1.r	.	1.r	.
8BB\	.	.	.	.	.	.	.	.	.	.	.
8E\J	.	.	.	.	.	.	.	.	.	.	.
=54	=54	=54	=54	=54	=54	=54	=54	=54	=54	=54	=54
8A\L	.	4.ryy	4.ryy	4.ryy	4.ryy	4.ryy	.	.	.	.	.
8F#\	.	.	.	.	.	.	.	.	.	.	.
!LO:SIC:v:t=8C# lub 8D	!	!	!	!	!	!	!	!	!	!	!
8C#\J	.	.	.	.	.	.	.	.	.	.	.
=55	=55	=55	=55	=55	=55	=55	=55	=55	=55	=55	=55
8D\L	.	4.ryy	4.ryy	4.ryy	4.ryy	4.ryy	.	.	.	.	.
8BB\	.	.	.	.	.	.	.	.	.	.	.
8E\J	.	.	.	.	.	.	.	.	.	.	.
=56	=56	=56	=56	=56	=56	=56	=56	=56	=56	=56	=56
4AA/	.	4.ryy	4.ryy	4.ryy	4.ryy	4.ryy	.	.	.	.	.
8r	.	.	.	.	.	.	.	.	.	.	.
==	==	==	==	==	==	==	==	==	==	==	==
*-	*-	*-	*-	*-	*-	*-	*-	*-	*-	*-	*-
!!!system-decoration: [g1][g2]s8
!!!ENC: Marta Lawrence
!!!END: 2021-02-15
!!!ENC: Andrzej Gręziak
!!!END: 2021-02-03
